svg/color/hoge.svg

<?xml version="1.0" encoding="UTF-8" ?>
<!DOCTYPE svg PUBLIC "-//W3C//DTD SVG 1.1//EN" "http://www.w3.org/Graphics/SVG/1.1/DTD/svg11.dtd">
<svg width="250pt" height="250pt" viewBox="0 0 250 250" version="1.1" xmlns="http://www.w3.org/2000/svg">
<g id="#fafafaff">
<path fill="#fafafa" opacity="1.00" d=" M 0.00 0.00 L 250.00 0.00 L 250.00 250.00 L 0.00 250.00 L 0.00 0.00 M 110.68 6.09 C 80.63 9.99 52.43 25.82 33.34 49.32 C 20.37 65.07 11.55 84.21 8.03 104.31 C 1.85 137.70 10.82 173.48 31.97 200.06 C 44.74 216.07 61.42 229.07 80.43 236.82 C 112.61 250.29 150.62 248.88 181.58 232.72 C 196.57 225.26 209.46 214.15 220.23 201.42 C 236.46 181.29 246.21 155.90 246.96 130.00 C 247.80 125.66 246.81 121.31 246.75 116.96 C 245.14 92.92 236.00 69.50 221.00 50.66 C 216.72 45.10 211.51 40.37 206.57 35.42 C 187.91 18.82 163.97 8.27 139.12 5.68 C 129.64 4.99 120.12 4.91 110.68 6.09 Z" />
<path fill="#fafafa" opacity="1.00" d=" M 91.28 51.34 C 106.97 43.04 125.50 39.94 142.93 43.74 C 157.10 46.84 170.70 53.71 180.69 64.35 C 181.99 65.98 183.97 67.65 183.66 69.95 C 182.85 77.32 183.23 84.74 183.27 92.14 C 181.18 90.87 178.42 89.68 178.17 86.90 C 176.15 77.76 170.60 69.62 163.46 63.69 C 156.30 58.57 147.61 56.21 139.12 54.34 C 123.43 50.84 107.25 51.14 91.28 51.34 Z" />
<path fill="#fafafa" opacity="1.00" d=" M 95.48 52.65 C 99.02 52.60 102.56 52.57 106.09 52.60 C 115.74 69.59 125.56 86.48 134.94 103.61 C 129.84 98.97 123.98 95.24 117.83 92.18 C 116.61 91.71 115.78 90.70 115.25 89.55 C 108.63 77.26 102.15 64.91 95.48 52.65 Z" />
<path fill="#fafafa" opacity="1.00" d=" M 111.60 59.42 C 110.27 57.19 109.01 54.92 108.00 52.53 C 108.98 52.63 110.95 52.82 111.93 52.91 C 123.15 72.42 134.76 91.71 145.81 111.31 C 143.01 109.10 139.60 107.49 137.50 104.53 C 128.93 89.46 120.21 74.47 111.60 59.42 Z" />
<path fill="#fafafa" opacity="1.00" d=" M 61.02 60.87 C 67.02 57.20 73.90 55.15 80.86 54.33 C 87.05 65.44 93.30 76.53 99.84 87.44 C 98.09 87.51 96.35 87.59 94.60 87.67 C 94.13 86.73 93.66 85.79 93.19 84.85 C 86.68 81.78 79.30 82.51 72.33 82.78 C 68.91 75.30 64.25 68.44 61.02 60.87 Z" />
<path fill="#fafafa" opacity="1.00" d=" M 130.10 54.68 C 133.10 55.07 136.09 55.55 139.06 56.14 C 150.08 73.93 161.54 91.45 172.59 109.21 C 172.77 111.84 169.28 112.33 167.65 113.67 C 155.12 94.01 142.74 74.27 130.10 54.68 Z" />
<path fill="#fafafa" opacity="1.00" d=" M 186.44 130.01 C 189.45 110.30 186.36 90.31 187.88 70.51 C 192.40 73.86 195.87 78.35 199.45 82.63 C 207.50 92.94 215.08 103.84 219.90 116.07 C 220.38 117.36 220.83 118.67 221.32 119.96 C 221.57 121.62 221.86 123.29 222.23 124.94 C 222.76 130.02 221.86 135.06 221.22 140.09 C 218.32 153.31 212.53 167.45 200.24 174.51 C 193.90 176.88 184.35 175.04 182.73 167.47 C 180.99 154.84 184.83 142.44 186.44 130.01 Z" />
<path fill="#fafafa" opacity="1.00" d=" M 62.61 88.64 C 70.80 83.88 80.72 85.31 89.76 85.49 C 86.78 86.97 83.27 85.85 80.08 86.22 C 75.02 86.64 69.31 86.23 64.98 89.31 C 63.15 92.79 65.24 96.76 65.80 100.36 C 64.05 96.66 63.36 92.63 62.61 88.64 Z" />
<path fill="#fafafa" opacity="1.00" d=" M 85.04 105.09 C 89.25 101.47 91.24 96.21 94.14 91.64 C 98.44 91.85 102.79 91.98 107.00 93.00 C 116.55 95.06 124.66 100.90 132.31 106.69 C 139.30 112.07 146.53 118.46 155.77 119.02 C 162.45 119.40 169.69 118.53 175.11 114.26 C 177.51 115.69 179.97 117.04 182.54 118.16 C 183.28 126.15 181.23 134.06 179.87 141.88 C 179.57 143.89 179.32 145.91 178.86 147.89 C 178.04 156.15 175.97 165.07 179.96 172.86 C 181.63 175.44 179.19 178.00 178.34 180.39 L 177.86 180.69 C 176.78 182.61 175.62 184.48 174.32 186.26 C 168.76 193.77 159.56 199.27 149.96 197.29 C 148.67 196.81 147.36 196.39 146.06 195.96 C 136.61 192.28 131.23 183.04 126.17 174.83 C 123.12 169.54 120.13 164.21 117.19 158.86 C 116.19 157.21 115.21 155.56 114.21 153.92 C 107.23 142.56 98.18 131.36 85.16 126.85 C 84.12 126.52 83.08 126.17 82.05 125.82 C 79.91 125.33 77.37 125.75 75.54 124.42 C 74.06 120.35 74.63 115.95 74.30 111.71 C 73.45 115.95 72.72 120.29 73.27 124.62 C 70.10 124.55 67.00 125.20 63.89 125.74 C 58.81 127.71 54.50 131.21 51.66 135.87 C 49.17 141.25 48.21 147.08 47.91 152.95 C 48.31 164.56 50.35 176.17 54.42 187.07 C 52.94 186.72 51.46 186.40 49.97 186.08 C 38.53 178.87 34.14 164.88 32.65 152.13 C 31.54 138.07 31.91 123.35 37.48 110.18 C 41.48 100.96 50.44 92.66 61.08 93.46 C 62.42 99.50 64.93 106.02 70.60 109.22 C 75.71 111.60 81.45 108.90 85.04 105.09 M 55.27 97.36 C 55.85 97.51 57.01 97.83 57.59 97.99 C 57.56 97.29 57.49 95.90 57.46 95.21 C 56.49 95.64 55.07 95.98 55.27 97.36 M 48.58 100.34 C 49.19 100.50 50.42 100.82 51.03 100.99 C 50.87 100.31 50.54 98.97 50.38 98.29 C 49.35 98.58 48.54 99.18 48.58 100.34 M 95.94 100.21 C 94.78 101.71 97.40 103.33 98.31 101.73 C 99.40 100.24 96.88 98.67 95.94 100.21 M 57.29 102.67 C 57.41 104.22 58.15 105.21 59.84 104.97 C 59.78 104.35 59.66 103.11 59.60 102.49 C 59.02 102.54 57.87 102.62 57.29 102.67 M 109.56 102.14 C 108.17 103.44 110.14 105.80 111.57 104.39 C 113.09 103.19 110.90 100.55 109.56 102.14 M 49.44 106.40 C 49.96 106.40 50.98 106.40 51.49 106.40 C 52.17 105.31 52.01 104.40 50.99 103.67 C 49.52 103.24 48.43 105.36 49.44 106.40 M 53.66 106.71 C 52.42 108.03 54.45 110.43 55.83 108.96 C 57.35 107.65 54.99 105.41 53.66 106.71 M 97.25 107.34 C 95.60 108.31 97.53 110.65 98.95 109.66 C 100.55 108.67 98.67 106.33 97.25 107.34 M 104.00 108.26 C 102.48 109.34 104.54 111.48 105.90 110.57 C 107.46 109.52 105.35 107.31 104.00 108.26 Z" />
<path fill="#fafafa" opacity="1.00" d=" M 65.88 129.95 C 77.43 127.29 89.62 131.90 97.94 140.01 C 110.02 151.87 116.15 168.01 125.16 182.03 C 129.62 188.89 134.91 195.81 142.52 199.33 C 140.63 200.18 138.74 201.04 136.84 201.87 C 135.86 202.21 134.88 202.55 133.89 202.88 C 132.62 203.33 131.33 203.76 130.06 204.22 C 126.77 205.02 123.42 205.58 120.10 206.23 C 108.86 207.42 97.41 206.08 86.78 202.21 C 80.92 200.13 75.36 197.33 69.98 194.24 C 66.55 192.00 62.94 189.93 60.03 187.00 C 58.19 183.87 56.68 180.53 56.02 176.94 C 53.44 165.65 50.63 153.61 54.11 142.19 C 55.69 136.49 60.04 131.46 65.88 129.95 Z" />
</g>
<g id="#1d1d1bff">
<path fill="#1d1d1b" opacity="1.00" d=" M 110.68 6.09 C 120.12 4.91 129.64 4.99 139.12 5.68 C 163.97 8.27 187.91 18.82 206.57 35.42 C 211.51 40.37 216.72 45.10 221.00 50.66 C 236.00 69.50 245.14 92.92 246.75 116.96 C 246.81 121.31 247.80 125.66 246.96 130.00 C 246.21 155.90 236.46 181.29 220.23 201.42 C 209.46 214.15 196.57 225.26 181.58 232.72 C 150.62 248.88 112.61 250.29 80.43 236.82 C 61.42 229.07 44.74 216.07 31.97 200.06 C 10.82 173.48 1.85 137.70 8.03 104.31 C 11.55 84.21 20.37 65.07 33.34 49.32 C 52.43 25.82 80.63 9.99 110.68 6.09 M 91.28 51.34 C 107.25 51.14 123.43 50.84 139.12 54.34 C 147.61 56.21 156.30 58.57 163.46 63.69 C 170.60 69.62 176.15 77.76 178.17 86.90 C 178.42 89.68 181.18 90.87 183.27 92.14 C 183.23 84.74 182.85 77.32 183.66 69.95 C 183.97 67.65 181.99 65.98 180.69 64.35 C 170.70 53.71 157.10 46.84 142.93 43.74 C 125.50 39.94 106.97 43.04 91.28 51.34 M 95.48 52.65 C 102.15 64.91 108.63 77.26 115.25 89.55 C 115.78 90.70 116.61 91.71 117.83 92.18 C 123.98 95.24 129.84 98.97 134.94 103.61 C 125.56 86.48 115.74 69.59 106.09 52.60 C 102.56 52.57 99.02 52.60 95.48 52.65 M 111.60 59.42 C 120.21 74.47 128.93 89.46 137.50 104.53 C 139.60 107.49 143.01 109.10 145.81 111.31 C 134.76 91.71 123.15 72.42 111.93 52.91 C 110.95 52.82 108.98 52.63 108.00 52.53 C 109.01 54.92 110.27 57.19 111.60 59.42 M 61.02 60.87 C 64.25 68.44 68.91 75.30 72.33 82.78 C 79.30 82.51 86.68 81.78 93.19 84.85 C 93.66 85.79 94.13 86.73 94.60 87.67 C 96.35 87.59 98.09 87.51 99.84 87.44 C 93.30 76.53 87.05 65.44 80.86 54.33 C 73.90 55.15 67.02 57.20 61.02 60.87 M 130.10 54.68 C 142.74 74.27 155.12 94.01 167.65 113.67 C 169.28 112.33 172.77 111.84 172.59 109.21 C 161.54 91.45 150.08 73.93 139.06 56.14 C 136.09 55.55 133.10 55.07 130.10 54.68 M 186.44 130.01 C 184.83 142.44 180.99 154.84 182.73 167.47 C 184.35 175.04 193.90 176.88 200.24 174.51 C 212.53 167.45 218.32 153.31 221.22 140.09 C 221.86 135.06 222.76 130.02 222.23 124.94 C 221.86 123.29 221.57 121.62 221.32 119.96 C 220.83 118.67 220.38 117.36 219.90 116.07 C 215.08 103.84 207.50 92.94 199.45 82.63 C 195.87 78.35 192.40 73.86 187.88 70.51 C 186.36 90.31 189.45 110.30 186.44 130.01 M 62.61 88.64 C 63.36 92.63 64.05 96.66 65.80 100.36 C 65.24 96.76 63.15 92.79 64.98 89.31 C 69.31 86.23 75.02 86.64 80.08 86.22 C 83.27 85.85 86.78 86.97 89.76 85.49 C 80.72 85.31 70.80 83.88 62.61 88.64 M 85.04 105.09 C 81.45 108.90 75.71 111.60 70.60 109.22 C 64.93 106.02 62.42 99.50 61.08 93.46 C 50.44 92.66 41.48 100.96 37.48 110.18 C 31.91 123.35 31.54 138.07 32.65 152.13 C 34.14 164.88 38.53 178.87 49.97 186.08 C 51.46 186.40 52.94 186.72 54.42 187.07 C 50.35 176.17 48.31 164.56 47.91 152.95 C 48.21 147.08 49.17 141.25 51.66 135.87 C 54.50 131.21 58.81 127.71 63.89 125.74 C 67.00 125.20 70.10 124.55 73.27 124.62 C 72.72 120.29 73.45 115.95 74.30 111.71 C 74.63 115.95 74.06 120.35 75.54 124.42 C 77.37 125.75 79.91 125.33 82.05 125.82 C 83.08 126.17 84.12 126.52 85.16 126.85 C 98.18 131.36 107.23 142.56 114.21 153.92 C 115.21 155.56 116.19 157.21 117.19 158.86 C 120.13 164.21 123.12 169.54 126.17 174.83 C 131.23 183.04 136.61 192.28 146.06 195.96 C 147.36 196.39 148.67 196.81 149.96 197.29 C 159.56 199.27 168.76 193.77 174.32 186.26 C 175.62 184.48 176.78 182.61 177.86 180.69 L 178.34 180.39 C 179.19 178.00 181.63 175.44 179.96 172.86 C 175.97 165.07 178.04 156.15 178.86 147.89 C 179.32 145.91 179.57 143.89 179.87 141.88 C 181.23 134.06 183.28 126.15 182.54 118.16 C 179.97 117.04 177.51 115.69 175.11 114.26 C 169.69 118.53 162.45 119.40 155.77 119.02 C 146.53 118.46 139.30 112.07 132.31 106.69 C 124.66 100.90 116.55 95.06 107.00 93.00 C 102.79 91.98 98.44 91.85 94.14 91.64 C 91.24 96.21 89.25 101.47 85.04 105.09 M 65.88 129.95 C 60.04 131.46 55.69 136.49 54.11 142.19 C 50.63 153.61 53.44 165.65 56.02 176.94 C 56.68 180.53 58.19 183.87 60.03 187.00 C 62.94 189.93 66.55 192.00 69.98 194.24 C 75.36 197.33 80.92 200.13 86.78 202.21 C 97.41 206.08 108.86 207.42 120.10 206.23 C 123.42 205.58 126.77 205.02 130.06 204.22 C 131.33 203.76 132.62 203.33 133.89 202.88 C 134.88 202.55 135.86 202.21 136.84 201.87 C 138.74 201.04 140.63 200.18 142.52 199.33 C 134.91 195.81 129.62 188.89 125.16 182.03 C 116.15 168.01 110.02 151.87 97.94 140.01 C 89.62 131.90 77.43 127.29 65.88 129.95 Z" />
<path fill="#1d1d1b" opacity="1.00" d=" M 55.27 97.36 C 55.07 95.98 56.49 95.64 57.46 95.21 C 57.49 95.90 57.56 97.29 57.59 97.99 C 57.01 97.83 55.85 97.51 55.27 97.36 Z" />
<path fill="#1d1d1b" opacity="1.00" d=" M 48.58 100.34 C 48.54 99.18 49.35 98.58 50.38 98.29 C 50.54 98.97 50.87 100.31 51.03 100.99 C 50.42 100.82 49.19 100.50 48.58 100.34 Z" />
<path fill="#1d1d1b" opacity="1.00" d=" M 95.94 100.21 C 96.88 98.67 99.40 100.24 98.31 101.73 C 97.40 103.33 94.78 101.71 95.94 100.21 Z" />
<path fill="#1d1d1b" opacity="1.00" d=" M 57.29 102.67 C 57.87 102.62 59.02 102.54 59.60 102.49 C 59.66 103.11 59.78 104.35 59.84 104.97 C 58.15 105.21 57.41 104.22 57.29 102.67 Z" />
<path fill="#1d1d1b" opacity="1.00" d=" M 109.56 102.14 C 110.90 100.55 113.09 103.19 111.57 104.39 C 110.14 105.80 108.17 103.44 109.56 102.14 Z" />
<path fill="#1d1d1b" opacity="1.00" d=" M 49.44 106.40 C 48.43 105.36 49.52 103.24 50.99 103.67 C 52.01 104.40 52.17 105.31 51.49 106.40 C 50.98 106.40 49.96 106.40 49.44 106.40 Z" />
<path fill="#1d1d1b" opacity="1.00" d=" M 53.66 106.71 C 54.99 105.41 57.35 107.65 55.83 108.96 C 54.45 110.43 52.42 108.03 53.66 106.71 Z" />
<path fill="#1d1d1b" opacity="1.00" d=" M 97.25 107.34 C 98.67 106.33 100.55 108.67 98.95 109.66 C 97.53 110.65 95.60 108.31 97.25 107.34 Z" />
<path fill="#1d1d1b" opacity="1.00" d=" M 104.00 108.26 C 105.35 107.31 107.46 109.52 105.90 110.57 C 104.54 111.48 102.48 109.34 104.00 108.26 Z" />
</g>
</svg>

<?xml version="1.0" encoding="utf-8"?>
<!-- Generator: Adobe Illustrator 26.0.3, SVG Export Plug-In . SVG Version: 6.00 Build 0)  -->
<svg version="1.1" id="Layer_1" xmlns="http://www.w3.org/2000/svg" xmlns:xlink="http://www.w3.org/1999/xlink" x="0px" y="0px"
	 viewBox="0 0 250 250" style="enable-background:new 0 0 250 250;" xml:space="preserve">
<style type="text/css">
	.st0{fill:#FAFAFA;}
	.st1{fill:#1D1D1B;}
</style>
<g id="_x23_fafafaff">
	<path class="st0" d="M91.3,51.3c15.7-8.3,34.2-11.4,51.6-7.6c14.2,3.1,27.8,10,37.8,20.6c1.3,1.6,3.3,3.3,3,5.6
		c-0.8,7.4-0.4,14.8-0.4,22.2c-2.1-1.3-4.9-2.5-5.1-5.2c-2-9.1-7.6-17.3-14.7-23.2c-7.2-5.1-15.9-7.5-24.3-9.3
		C123.4,50.8,107.2,51.1,91.3,51.3z"/>
	<path class="st0" d="M95.5,52.7c3.5-0.1,7.1-0.1,10.6-0.1c9.7,17,19.5,33.9,28.9,51c-5.1-4.6-11-8.4-17.1-11.4
		c-1.2-0.5-2.1-1.5-2.6-2.6C108.6,77.3,102.2,64.9,95.5,52.7z"/>
	<path class="st0" d="M111.6,59.4c-1.3-2.2-2.6-4.5-3.6-6.9c1,0.1,2.9,0.3,3.9,0.4c11.2,19.5,22.8,38.8,33.9,58.4
		c-2.8-2.2-6.2-3.8-8.3-6.8C128.9,89.5,120.2,74.5,111.6,59.4z"/>
	<path class="st0" d="M61,60.9c6-3.7,12.9-5.7,19.8-6.5c6.2,11.1,12.4,22.2,19,33.1c-1.8,0.1-3.5,0.1-5.2,0.2
		c-0.5-0.9-0.9-1.9-1.4-2.8c-6.5-3.1-13.9-2.3-20.9-2.1C68.9,75.3,64.2,68.4,61,60.9z"/>
	<path class="st0" d="M130.1,54.7c3,0.4,6,0.9,9,1.5c11,17.8,22.5,35.3,33.5,53.1c0.2,2.6-3.3,3.1-4.9,4.5
		C155.1,94,142.7,74.3,130.1,54.7z"/>
	<path class="st0" d="M186.4,130c3-19.7-0.1-39.7,1.4-59.5c4.5,3.3,8,7.8,11.6,12.1c8.1,10.3,15.6,21.2,20.4,33.4
		c0.5,1.3,0.9,2.6,1.4,3.9c0.2,1.7,0.5,3.3,0.9,5c0.5,5.1-0.4,10.1-1,15.1c-2.9,13.2-8.7,27.4-21,34.4c-6.3,2.4-15.9,0.5-17.5-7
		C181,154.8,184.8,142.4,186.4,130z"/>
	<path class="st0" d="M62.6,88.6c8.2-4.8,18.1-3.3,27.2-3.2c-3,1.5-6.5,0.4-9.7,0.7c-5.1,0.4-10.8,0-15.1,3.1
		c-1.8,3.5,0.3,7.5,0.8,11.1C64.1,96.7,63.4,92.6,62.6,88.6z"/>
	<path class="st0" d="M85,105.1c4.2-3.6,6.2-8.9,9.1-13.4c4.3,0.2,8.7,0.3,12.9,1.4c9.6,2.1,17.7,7.9,25.3,13.7
		c7,5.4,14.2,11.8,23.5,12.3c6.7,0.4,13.9-0.5,19.3-4.8c2.4,1.4,4.9,2.8,7.4,3.9c0.7,8-1.3,15.9-2.7,23.7c-0.3,2-0.5,4-1,6
		c-0.8,8.3-2.9,17.2,1.1,25c1.7,2.6-0.8,5.1-1.6,7.5l-0.5,0.3c-1.1,1.9-2.2,3.8-3.5,5.6c-5.6,7.5-14.8,13-24.4,11
		c-1.3-0.5-2.6-0.9-3.9-1.3c-9.4-3.7-14.8-12.9-19.9-21.1c-3-5.3-6-10.6-9-16c-1-1.6-2-3.3-3-4.9c-7-11.4-16-22.6-29-27.1
		c-1-0.3-2.1-0.7-3.1-1c-2.1-0.5-4.7-0.1-6.5-1.4c-1.5-4.1-0.9-8.5-1.2-12.7c-0.9,4.2-1.6,8.6-1,12.9c-3.2-0.1-6.3,0.6-9.4,1.1
		c-5.1,2-9.4,5.5-12.2,10.1c-2.5,5.4-3.5,11.2-3.8,17.1c0.4,11.6,2.4,23.2,6.5,34.1c-1.5-0.4-3-0.7-4.4-1
		c-11.4-7.2-15.8-21.2-17.3-33.9c-1.1-14.1-0.7-28.8,4.8-42c4-9.2,13-17.5,23.6-16.7c1.3,6,3.8,12.6,9.5,15.8
		C75.7,111.6,81.4,108.9,85,105.1 M55.3,97.4c0.6,0.2,1.7,0.5,2.3,0.6c0-0.7-0.1-2.1-0.1-2.8C56.5,95.6,55.1,96,55.3,97.4
		 M48.6,100.3c0.6,0.2,1.8,0.5,2.4,0.7c-0.2-0.7-0.5-2-0.6-2.7C49.3,98.6,48.5,99.2,48.6,100.3 M95.9,100.2
		c-1.2,1.5,1.5,3.1,2.4,1.5C99.4,100.2,96.9,98.7,95.9,100.2 M57.3,102.7c0.1,1.6,0.9,2.5,2.5,2.3c-0.1-0.6-0.2-1.9-0.2-2.5
		C59,102.5,57.9,102.6,57.3,102.7 M109.6,102.1c-1.4,1.3,0.6,3.7,2,2.2C113.1,103.2,110.9,100.6,109.6,102.1 M49.4,106.4
		c0.5,0,1.5,0,2.1,0c0.7-1.1,0.5-2-0.5-2.7C49.5,103.2,48.4,105.4,49.4,106.4 M53.7,106.7c-1.2,1.3,0.8,3.7,2.2,2.2
		C57.3,107.7,55,105.4,53.7,106.7 M97.2,107.3c-1.7,1,0.3,3.3,1.7,2.3C100.6,108.7,98.7,106.3,97.2,107.3 M104,108.3
		c-1.5,1.1,0.5,3.2,1.9,2.3C107.5,109.5,105.3,107.3,104,108.3z"/>
	<path class="st0" d="M65.9,129.9c11.6-2.7,23.7,1.9,32.1,10.1c12.1,11.9,18.2,28,27.2,42c4.5,6.9,9.8,13.8,17.4,17.3
		c-1.9,0.8-3.8,1.7-5.7,2.5c-1,0.3-2,0.7-2.9,1c-1.3,0.4-2.6,0.9-3.8,1.3c-3.3,0.8-6.6,1.4-10,2c-11.2,1.2-22.7-0.1-33.3-4
		c-5.9-2.1-11.4-4.9-16.8-8c-3.4-2.2-7-4.3-10-7.2c-1.8-3.1-3.3-6.5-4-10.1c-2.6-11.3-5.4-23.3-1.9-34.8
		C55.7,136.5,60,131.5,65.9,129.9z"/>
</g>
<g id="_x23_1d1d1bff">
	<path class="st1" d="M110.7,6.1c9.4-1.2,19-1.1,28.4-0.4c24.9,2.6,48.8,13.1,67.5,29.7c4.9,5,10.1,9.7,14.4,15.2
		c15,18.8,24.1,42.3,25.8,66.3c0.1,4.3,1.1,8.7,0.2,13c-0.8,25.9-10.5,51.3-26.7,71.4c-10.8,12.7-23.7,23.8-38.6,31.3
		c-31,16.2-69,17.6-101.2,4.1c-19-7.8-35.7-20.8-48.5-36.8C10.8,173.5,1.9,137.7,8,104.3c3.5-20.1,12.3-39.2,25.3-55
		C52.4,25.8,80.6,10,110.7,6.1 M91.3,51.3c16-0.2,32.2-0.5,47.8,3c8.5,1.9,17.2,4.2,24.3,9.3c7.1,5.9,12.7,14.1,14.7,23.2
		c0.2,2.8,3,4,5.1,5.2c0-7.4-0.4-14.8,0.4-22.2c0.3-2.3-1.7-4-3-5.6c-10-10.6-23.6-17.5-37.8-20.6C125.5,39.9,107,43,91.3,51.3
		 M95.5,52.7c6.7,12.3,13.1,24.6,19.8,36.9c0.5,1.1,1.4,2.2,2.6,2.6c6.2,3.1,12,6.8,17.1,11.4c-9.4-17.1-19.2-34-28.9-51
		C102.6,52.6,99,52.6,95.5,52.7 M111.6,59.4c8.6,15.1,17.3,30,25.9,45.1c2.1,3,5.5,4.6,8.3,6.8c-11.1-19.6-22.7-38.9-33.9-58.4
		c-1-0.1-2.9-0.3-3.9-0.4C109,54.9,110.3,57.2,111.6,59.4 M61,60.9c3.2,7.6,7.9,14.4,11.3,21.9c7-0.3,14.3-1,20.9,2.1
		c0.5,0.9,0.9,1.9,1.4,2.8c1.8-0.1,3.5-0.2,5.2-0.2c-6.5-10.9-12.8-22-19-33.1C73.9,55.2,67,57.2,61,60.9 M130.1,54.7
		c12.6,19.6,25,39.3,37.5,59c1.6-1.3,5.1-1.8,4.9-4.5c-11.1-17.8-22.5-35.3-33.5-53.1C136.1,55.5,133.1,55.1,130.1,54.7 M186.4,130
		c-1.6,12.4-5.4,24.8-3.7,37.5c1.6,7.6,11.2,9.4,17.5,7c12.3-7.1,18.1-21.2,21-34.4c0.6-5,1.5-10.1,1-15.1c-0.4-1.7-0.7-3.3-0.9-5
		c-0.5-1.3-0.9-2.6-1.4-3.9c-4.8-12.2-12.4-23.1-20.4-33.4c-3.6-4.3-7.1-8.8-11.6-12.1C186.4,90.3,189.4,110.3,186.4,130 M62.6,88.6
		c0.8,4,1.4,8,3.2,11.7c-0.6-3.6-2.7-7.6-0.8-11.1c4.3-3.1,10-2.7,15.1-3.1c3.2-0.4,6.7,0.8,9.7-0.7C80.7,85.3,70.8,83.9,62.6,88.6
		 M85,105.1c-3.6,3.8-9.3,6.5-14.4,4.1c-5.7-3.2-8.2-9.7-9.5-15.8c-10.6-0.8-19.6,7.5-23.6,16.7c-5.6,13.2-5.9,27.9-4.8,42
		c1.5,12.8,5.9,26.7,17.3,33.9c1.5,0.3,3,0.6,4.4,1c-4.1-10.9-6.1-22.5-6.5-34.1c0.3-5.9,1.3-11.7,3.8-17.1
		c2.8-4.7,7.2-8.2,12.2-10.1c3.1-0.5,6.2-1.2,9.4-1.1c-0.5-4.3,0.2-8.7,1-12.9c0.3,4.2-0.2,8.6,1.2,12.7c1.8,1.3,4.4,0.9,6.5,1.4
		c1,0.3,2.1,0.7,3.1,1c13,4.5,22.1,15.7,29,27.1c1,1.6,2,3.3,3,4.9c2.9,5.4,5.9,10.7,9,16c5.1,8.2,10.4,17.4,19.9,21.1
		c1.3,0.4,2.6,0.8,3.9,1.3c9.6,2,18.8-3.5,24.4-11c1.3-1.8,2.5-3.6,3.5-5.6l0.5-0.3c0.9-2.4,3.3-4.9,1.6-7.5c-4-7.8-1.9-16.7-1.1-25
		c0.5-2,0.7-4,1-6c1.4-7.8,3.4-15.7,2.7-23.7c-2.6-1.1-5-2.5-7.4-3.9c-5.4,4.3-12.7,5.1-19.3,4.8c-9.2-0.6-16.5-6.9-23.5-12.3
		c-7.6-5.8-15.8-11.6-25.3-13.7c-4.2-1-8.6-1.2-12.9-1.4C91.2,96.2,89.2,101.5,85,105.1 M65.9,129.9c-5.8,1.5-10.2,6.5-11.8,12.2
		c-3.5,11.4-0.7,23.5,1.9,34.8c0.7,3.6,2.2,6.9,4,10.1c2.9,2.9,6.5,5,10,7.2c5.4,3.1,10.9,5.9,16.8,8c10.6,3.9,22.1,5.2,33.3,4
		c3.3-0.6,6.7-1.2,10-2c1.3-0.5,2.6-0.9,3.8-1.3c1-0.3,2-0.7,2.9-1c1.9-0.8,3.8-1.7,5.7-2.5c-7.6-3.5-12.9-10.4-17.4-17.3
		c-9-14-15.1-30.2-27.2-42C89.6,131.9,77.4,127.3,65.9,129.9z"/>
	<path class="st1" d="M55.3,97.4c-0.2-1.4,1.2-1.7,2.2-2.2c0,0.7,0.1,2.1,0.1,2.8C57,97.8,55.8,97.5,55.3,97.4z"/>
	<path class="st1" d="M48.6,100.3c0-1.2,0.8-1.8,1.8-2c0.2,0.7,0.5,2,0.6,2.7C50.4,100.8,49.2,100.5,48.6,100.3z"/>
	<path class="st1" d="M95.9,100.2c0.9-1.5,3.5,0,2.4,1.5C97.4,103.3,94.8,101.7,95.9,100.2z"/>
	<path class="st1" d="M57.3,102.7c0.6,0,1.7-0.1,2.3-0.2c0.1,0.6,0.2,1.9,0.2,2.5C58.2,105.2,57.4,104.2,57.3,102.7z"/>
	<path class="st1" d="M109.6,102.1c1.3-1.6,3.5,1.1,2,2.2C110.1,105.8,108.2,103.4,109.6,102.1z"/>
	<path class="st1" d="M49.4,106.4c-1-1,0.1-3.2,1.6-2.7c1,0.7,1.2,1.6,0.5,2.7C51,106.4,50,106.4,49.4,106.4z"/>
	<path class="st1" d="M53.7,106.7c1.3-1.3,3.7,0.9,2.2,2.2C54.5,110.4,52.4,108,53.7,106.7z"/>
	<path class="st1" d="M97.2,107.3c1.4-1,3.3,1.3,1.7,2.3C97.5,110.7,95.6,108.3,97.2,107.3z"/>
	<path class="st1" d="M104,108.3c1.3-1,3.5,1.3,1.9,2.3C104.5,111.5,102.5,109.3,104,108.3z"/>
</g>
</svg>
